Obsidian-SemiLight/actions/24s/format-text-direction-vertical.svg

<svg viewBox="0 0 24 24" xmlns="http://www.w3.org/2000/svg"><path d="m7.9433594 4-3.9433594 6.828125v.171875h1.0566406l1.1542969-2h4.5781245l1.154297 2h1.056641v-.171875l-3.9433594-6.828125h-.0566406zm8.0566406 0v13h1v-13zm3 0v13h1v-13zm-10.5 1.0371094 1.710938 2.9628906h-3.4218755zm-4.5 6.9628906v5h1v-5zm3 0v5h1v-5zm3 0v5h1v-5zm3 0v5h1v-5zm-9 6 2 2 2-2zm6 0 2 2 2-2zm6 0 2 2 2-2z" fill="#4d4d4d"/></svg>

<svg xmlns="http://www.w3.org/2000/svg" viewBox="0 0 24 24">
  <defs id="defs3051">
    <style type="text/css" id="current-color-scheme">
      .ColorScheme-Text {
        color:#4d4d4d;
      }
      </style>
  </defs>
 <path style="fill:currentColor;fill-opacity:1;stroke:none" 
     d="M 7.9433594 4 L 4 10.828125 L 4 11 L 5.0566406 11 L 6.2109375 9 L 10.789062 9 L 11.943359 11 L 13 11 L 13 10.828125 L 9.0566406 4 L 9 4 L 7.9433594 4 z M 16 4 L 16 17 L 17 17 L 17 4 L 16 4 z M 19 4 L 19 17 L 20 17 L 20 4 L 19 4 z M 8.5 5.0371094 L 10.210938 8 L 6.7890625 8 L 8.5 5.0371094 z M 4 12 L 4 17 L 5 17 L 5 12 L 4 12 z M 7 12 L 7 17 L 8 17 L 8 12 L 7 12 z M 10 12 L 10 17 L 11 17 L 11 12 L 10 12 z M 13 12 L 13 17 L 14 17 L 14 12 L 13 12 z M 4 18 L 6 20 L 8 18 L 4 18 z M 10 18 L 12 20 L 14 18 L 10 18 z M 16 18 L 18 20 L 20 18 L 16 18 z "
     class="ColorScheme-Text"
     />
</svg>
